packages/tokens/icons/delete/size16Px.svg

<svg viewBox="0 0 16 16" fill="none" xmlns="http://www.w3.org/2000/svg" width="1em" height="1em"><path d="M4.33259 13.1358L3.54752 4.5L12.4525 4.5L11.6674 13.1358C11.5972 13.9084 10.9494 14.5 10.1736 14.5H5.82643C5.05062 14.5 4.40283 13.9084 4.33259 13.1358Z" stroke="currentColor" stroke-linecap="round"/><path d="M6.5 7.5L6.5 12.5" stroke="currentColor" stroke-linecap="round"/><path d="M9.5 7.5V12.5" stroke="currentColor" stroke-linecap="round"/><path d="M2.5 4.5L13.5 4.5" stroke="currentColor" stroke-linecap="round"/><path d="M10.5 4L10.5 2.5C10.5 1.94771 10.0523 1.5 9.50001 1.5L6.5 1.5C5.94772 1.5 5.5 1.94772 5.5 2.5L5.50001 4" stroke="currentColor"/></svg>

<svg xmlns="http://www.w3.org/2000/svg" fill="none" viewBox="0 0 16 16" width="1em" height="1em"><path stroke="currentColor" stroke-linecap="round" d="M4.333 13.136 3.548 4.5h8.905l-.786 8.636a1.5 1.5 0 0 1-1.493 1.364H5.826a1.5 1.5 0 0 1-1.493-1.364ZM6.5 7.5v5m3-5v5m-7-8h11"/><path stroke="currentColor" d="M10.5 4V2.5a1 1 0 0 0-1-1h-3a1 1 0 0 0-1 1V4"/></svg>
